X: 1906
T: Arra Mountains, The
R: slip jig
M: 9/8
K: Adorian
|:EAA EAB cBc|EAA EAF GED|A,EA EAB c2d|ege e/f/ge dBG:|
|:A,Aa g3 ged|B^ca gef g2d|Aea gef gef|g3 e/f/ge dBG:|

